X:1
T:Suite IV in E minor, Allemande
T:Handel, George Frideric 
T:8 Great Suites (1720) 
T: HWV 429
T:Oli 2020
Z:Oli 2020
%%score { ( 1 3 6 ) | ( 2 4 5 7 ) }
L:1/8
Q:1/4=50
M:4/4
K:G
V:1 treble nm="Piano"
V:3 treble 
V:6 treble 
V:2 bass 
V:4 bass 
V:5 bass 
V:7 bass 
V:1
 e2 | [GBe-]2 e/d/c/B/ AB/c/ B>A | GE B>^c dB ^d>d | e>f g/f/g/e/ ba/g/ g/f/g/a/ | %4
 ^d2 z/ a/g/>f/ g/=d/c/>B/ c/G/F/E/ | ^DE/F/ D>E E2 z/ G/F/A/ | GA/B/ AG/F/ F2 z/ d/^c/d/ | %7
 B2- B/g/f/g/ ^AB/^c/ A>B | Bz/BB^A/ B2 :: F2 | [^DF]2 z/ F/B/A/ Gc- c/B/c/A/ | %11
 B2- B/B/A/G/ FG/A/ F>G | G/g/f/e/ dc/B/ Ad- d/c/d/B/ | c2 z/ e/d/c/ BB ef/g/ | %14
 ^d/e/d/e/ Te3/2^d/4e/4 f2 z/ b/a/b/ | gf/g/ e=d/e/ cB ef | gc- cB eG/A/ TA3/2G/4A/4 | %17
 B>^c ^d>d e/B/=c/F/ GF/E/ | Ez/EE^D/ E2 :| %19
V:2
 z2 | E,2 x2[I:staff -1] F4 |[I:staff +1] E,>F, G,E, B,,G, A,,F, | G,,/C,/B,,/A,,/ E,C B,E z C | %4
 B,/F/E/F/ z ^D E2 A,2- | A,G, z A, [G,B,]2 z2 | E,,D, ^C,A,, D,/D/^C/D/ B,F, | G,3 E, F,4 | %8
 z B,,^D,F, B,,2 :: z2 | B,F,/E,/ ^D,B,, E,A,/E,/ F,=D, | G,B,, C,2 D,4 | G,A, B,C DB, EE, | %13
 A,,B,, C,D, E,/E/D/E/ C2 | B,2 x2[I:staff -1] ^d2[I:staff +1] x2 | %15
 z/[I:staff -1] e/^d/e/ c/A/B/^G/[I:staff +1] z/ E/^D/E/ CA, | E,/A,/G,/A,/ D,/G,/F,/G,/ z E, x2 | %17
 B,,2 z/ B,/A,/B,/ G,A, B,B,, | E,E,, G,,B,, E,,2 :| %19
V:3
 x2 | z B, E2- EE ^D[I:staff +1]B, | x8 | x8 | x8 | x8 |[I:staff -1] z2 E2 F2 z2 | %7
 z/[I:staff +1] B,/[I:staff -1]E/^D/ E2- E=D ^C2 | [B,^DF]2 z ^C [B,^DF]2 :: x2 | x8 | %11
 z/ D/G/F/ EC- C/[I:staff +1]A,/B,/C/[I:staff -1] z[I:staff +1] C | %12
 B,2[I:staff -1] z/ B/A/G/ FB- B/A/B/^G/ | A/A/=G/F/ EF GF EA- | AA GE B,/B/A/B/ GF | x4 A>=G Ac | %16
 G2 F2 E2[I:staff +1] C2 |[I:staff -1] z/ ^D/E F2 z E E^D | %18
[I:staff +1] [G,B,]2[I:staff -1] z[I:staff +1] F, [E,G,B,]2 :| %19
V:4
 x2 | x8 | x8 | x6 A,2 | x2 A,2 z G, z A,, | B,,4 E,,/B,,/E,/^D,/ E,B,, | x8 | x8 | x6 :: x2 | %10
 x4[I:staff -1] E2 =D2 | x8 | x8 | x8 | x8 | x8 |[I:staff +1] x4 C,3 C, | x8 | x6 :| %19
V:5
 x2 | x8 | x8 | x8 | x8 | x2 F,2 x4 | x8 | x8 | x6 :: x2 | x8 | x8 | x8 | x8 | x8 | x8 | x8 | x8 | %18
 x6 :| %19
V:6
 x2 | x8 | x8 | x8 | x8 | x8 | x8 | x6 z E | x6 :: x2 | x8 | x8 | x8 | %13
[I:staff +1] A,2[I:staff -1] x6 | x8 | x8 | x8 | x8 | x6 :| %19
V:7
 x2 | x8 | x8 | x8 | x8 | x8 | x8 | x8 | x6 :: x2 | x8 | x6 A,2 | x8 | x8 | x8 | x8 | x8 | x8 | %18
 x6 :| %19

